X: 2
T: Leslie's March
C: William Reeve 1791
R: jig, march
B: BSFC Session Tune Book 2016 p.59
S: Concord Slow Scottish collection
Z: 2017 John Chambers <jc:trillian.mit.edu>
M: 6/8
L: 1/8
K: D
|:\
"D"~d3 ~d3 | dcB "A"ABc | "D"dcB "A"AGF | "A7"~G2F "E7"E2D |\
"A"~e3 ~e>fg | "D"fed "A"eag | "D"fef ~d2A | def "A"~e2d :|
|:\
"D"fed "A"e~AA | "D"fed "A"e~AA | "G"gfe "D"f~BB | "G"gfe "D"f~BB |\
"D"fed "A"e~AA | "D"fed "A"eag | "D"fef ~d2A | def "A"~e2d :|
|:\
"D"dfa dfa | dfa afd | "Em"egb egb | egb bge |\
"D"dfa dfa | dfa "A7"~a2g | "D"fed ~d2A | def "A"~e2d :|
